packages/match-icons/product/svg/authy.svg

<svg fill="none" height="32" viewBox="0 0 32 32" width="32" xmlns="http://www.w3.org/2000/svg"><path d="m29.2 23.33-.1.1-.1.1v.1h-.1c-1.8905 1.7758-4.397 2.7476-6.9904 2.7103-2.5935-.0373-5.071-1.0809-6.9096-2.9103l-5.3-5.3c-.18245-.1878-.32501-.4105-.41911-.6547-.09411-.2443-.1378-.5051-.12846-.7667s.07153-.5186.18282-.7555c.11129-.237.26938-.4489.46475-.6231.3687-.3373.8503-.5244 1.35-.5244s.9813.1871 1.35.5244l5.3 5.3c.5384.5646 1.1828 1.0178 1.8963 1.3334.7135.3157 1.4823.4877 2.2623.5063.78.0185 1.556-.1167 2.2838-.3981.7277-.2813 1.3929-.7032 1.9576-1.2416.5647-.5385 1.0178-1.1828 1.3334-1.8964.3157-.7135.4877-1.4822.5063-2.2622s-.1167-1.5561-.398-2.2838c-.2814-.7277-.7033-1.3929-1.2417-1.9576l-.2-.2-5.3-5.30003c-.3801-.36061-.6035-.85596-.6222-1.37957-.0187-.5236.1688-1.03364.5222-1.42043.3565-.38432.8497-.61327 1.3734-.63758s1.036.15796 1.4266.50758l.1.1 5.3 5.33c1.8295 1.83863 2.873 4.31613 2.9103 6.90953.0373 2.5935-.9345 5.1-2.7103 6.9905zm-23.4-3.5c-.55936-.5575-1.00318-1.2198-1.30602-1.9491-.30283-.7293-.45871-1.5113-.45871-2.3009 0-.7897.15588-1.5716.45871-2.3009.30284-.7294.74666-1.3917 1.30602-1.9491.55478-.5511 1.21374-.9862 1.93843-1.2799.7247-.29372 1.50063-.4402 2.28257-.43089.7819.00931 1.5541.17421 2.2716.48509.7175.3109 1.3659.7615 1.9074 1.3257l5.3 5.3.06.06c.261.2726.5969.4617.9653.5436s.7528.0528 1.1047-.0836c.3165-.1198.5974-.318.8165-.5759.219-.258.369-.5673.436-.899.0669-.3317.0486-.675-.0533-.9977s-.2839-.6143-.5292-.8474l-5.3-5.30003c-1.8386-1.82947-4.3161-2.873-6.9096-2.91031-2.59343-.03732-5.09992.93449-6.9904 2.71031l-.1.1v.1h-.1l-.1.1c-1.77582 1.89043-2.7476262 4.39693-2.7103102 6.99043.0373162 2.5935 1.0808402 5.071 2.9103102 6.9096l5.23 5.24c.35453.3487.82085.561 1.31668.5995.49582.0384.98932-.0996 1.39332-.3895.2152-.176.3913-.395.5171-.6429s.1986-.5193.2136-.7968c.0151-.2776-.0279-.5553-.1262-.8153-.0982-.2601-.2496-.4968-.4445-.695z" fill="#394762"/></svg>

<svg width="32" height="32" viewBox="0 0 32 32" fill="none" xmlns="http://www.w3.org/2000/svg">
<path d="M29.2 23.33L29.1 23.43L29 23.53V23.63H28.9C27.0095 25.4058 24.503 26.3776 21.9096 26.3403C19.3161 26.303 16.8386 25.2594 15 23.43L9.7 18.13C9.51755 17.9422 9.37499 17.7195 9.28089 17.4753C9.18678 17.231 9.14309 16.9702 9.15243 16.7086C9.16177 16.447 9.22396 16.19 9.33525 15.9531C9.44654 15.7161 9.60463 15.5042 9.8 15.33C10.1687 14.9927 10.6503 14.8056 11.15 14.8056C11.6497 14.8056 12.1313 14.9927 12.5 15.33L17.8 20.63C18.3384 21.1946 18.9828 21.6478 19.6963 21.9634C20.4098 22.2791 21.1786 22.4511 21.9586 22.4697C22.7386 22.4882 23.5146 22.353 24.2424 22.0716C24.9701 21.7903 25.6353 21.3684 26.2 20.83C26.7647 20.2915 27.2178 19.6472 27.5334 18.9336C27.8491 18.2201 28.0211 17.4514 28.0397 16.6714C28.0583 15.8914 27.923 15.1153 27.6417 14.3876C27.3603 13.6599 26.9384 12.9947 26.4 12.43L26.2 12.23L20.9 6.92997C20.5199 6.56936 20.2965 6.07401 20.2778 5.5504C20.2591 5.0268 20.4466 4.51676 20.8 4.12997C21.1565 3.74565 21.6497 3.5167 22.1734 3.49239C22.6971 3.46808 23.2094 3.65035 23.6 3.99997L23.7 4.09997L29 9.42997C30.8295 11.2686 31.873 13.7461 31.9103 16.3395C31.9476 18.933 30.9758 21.4395 29.2 23.33ZM5.8 19.83C5.24064 19.2725 4.79682 18.6102 4.49398 17.8809C4.19115 17.1516 4.03527 16.3696 4.03527 15.58C4.03527 14.7903 4.19115 14.0084 4.49398 13.2791C4.79682 12.5497 5.24064 11.8874 5.8 11.33C6.35478 10.7789 7.01374 10.3438 7.73843 10.0501C8.46313 9.75638 9.23906 9.6099 10.021 9.61921C10.8029 9.62852 11.5751 9.79342 12.2926 10.1043C13.0101 10.4152 13.6585 10.8658 14.2 11.43L19.5 16.73L19.56 16.79C19.821 17.0626 20.1569 17.2517 20.5253 17.3336C20.8937 17.4155 21.2781 17.3864 21.63 17.25C21.9465 17.1302 22.2274 16.932 22.4465 16.6741C22.6655 16.4161 22.8155 16.1068 22.8825 15.7751C22.9494 15.4434 22.9311 15.1001 22.8292 14.7774C22.7273 14.4547 22.5453 14.1631 22.3 13.93L17 8.62997C15.1614 6.8005 12.6839 5.75697 10.0904 5.71966C7.49697 5.68234 4.99048 6.65415 3.1 8.42997L3 8.52997V8.62997H2.9L2.8 8.72997C1.02418 10.6204 0.0523738 13.1269 0.0896898 15.7204C0.127006 18.3139 1.17053 20.7914 3 22.63L8.23 27.87C8.58453 28.2187 9.05085 28.431 9.54668 28.4695C10.0425 28.5079 10.536 28.3699 10.94 28.08C11.1552 27.904 11.3313 27.685 11.4571 27.4371C11.5829 27.1892 11.6557 26.9178 11.6707 26.6403C11.6858 26.3627 11.6428 26.085 11.5445 25.825C11.4463 25.5649 11.2949 25.3282 11.1 25.13L5.8 19.83Z" fill="#394762"/>
</svg>
